material/.icons/material/trackpad.svg

<svg xmlns="http://www.w3.org/2000/svg" viewBox="0 0 24 24"><path d="M4 3h16a2 2 0 012 2v14a2 2 0 01-2 2H4a2 2 0 01-2-2V5a2 2 0 012-2m0 2v8h16V5H4m0 14h7v-4H4v4m16 0v-4h-7v4h7z"/></svg>

<?xml version="1.0" encoding="UTF-8"?><!DOCTYPE svg PUBLIC "-//W3C//DTD SVG 1.1//EN" "http://www.w3.org/Graphics/SVG/1.1/DTD/svg11.dtd"><svg xmlns="http://www.w3.org/2000/svg" xmlns:xlink="http://www.w3.org/1999/xlink" version="1.1" id="mdi-trackpad" width="24" height="24" viewBox="0 0 24 24"><path d="M4,3H20A2,2 0 0,1 22,5V19A2,2 0 0,1 20,21H4A2,2 0 0,1 2,19V5A2,2 0 0,1 4,3M4,5V13H20V5H4M4,19H11V15H4V19M20,19V15H13V19H20Z" /></svg>
